X:1
T:Young Men in Christ the Lord
T:Young Men in Christ the Lord
T:George Coles Stebbins
T:Robert Weidensall, 1890
T:Public Domain Courtesy of the Cyber Hymnal™
T:Public Domain Courtesy of the Cyber Hymnal™
C:George Coles Stebbins
Z:Public Domain
Z:Courtesy of the Cyber Hymnal™
%%score ( 1 2 ) ( 3 4 )
L:1/8
Q:1/4=112
M:4/4
K:Eb
V:1 treble 
V:2 treble 
V:3 bass 
V:4 bass 
V:1
 [GB]2 | [GB]2 [^F=A]2 [GB]2 [Ge]2 [GB]6 [EG]2 | [Ec]3 [EB] (BA) [EG]2 | [DF]6 [DB]2 | %4
w: 1.~Young|men in Christ the Lord, Own|Him your Sav- * ior|God, His|
w: 2.~Young|men in Christ the Lord, Be|might- y in * His|Word, Its|
w: 3.~Young|men in Christ the King, Your|grate- ful trib- * ute|bring, Of|
w: 4.~Young|men in Christ the Friend, On|Him all hopes * de-|pend, Of|
w: 5.~Young|men in Christ, a- rise, The|world be- fore * you|lies, En-|
w: 6.~Young|men in Christ the Son, In|Him we all * are|one; For|
 [Fd]4 [Ec]4 | [DB]6 [DB]2 | [EB]2 [EG]2 [Ge]2 [^Fc]2 | [GB]3 [FA] [EG]2 [GB]2 | %8
w: Name a-|dore; For|by His won- drous|sac- ri- fice, He|
w: truths de-|clare; And|seek the Ho- ly|Spir- it’s power, By|
w: love and|praise; U-|nit- ed in His|roy- al Name, With|
w: true re-|lief; To|ev- ery bur- dened|soul you meet, His|
w: slaved in|sin; Make|haste to swell the|miss- ion band, Pre-|
w: this He|prayed; Then|let us join the|heaven- ly throng, To|
 [GB]2 [EG]2 [Ge]2 [^Fc]2 | [GB]3 [FA] [EG]2 [GB]2 | [Ac]2 [Ac]2 [Fd]2 [FB]2 | %11
w: paid the great re-|demp- tion price, That|all might have e-|
w: faith and per- se-|ver- ing prayer, That|ye may wit- ness|
w: loy- al hearts His|Word pro- claim, Through-|out the world to|
w: gra- cious, lov- ing|words so sweet, “Come|un- to Me,” with|
w: pared to go at|His com- mand, To|save lost men in|
w: sound His praise in|end- less song, For|all we have and|
 [Be]2 [Ge]2 [Ae]3 [Ec] | [EB]2 (AG) [CF]2 [DB]2 | E6 x2 |] x6 |] %15
w: ter- nal life, That|come to * God through|Him.||
w: a- ny- where, That|sin- ful * men are|found.||
w: all young men, “Ye|must be * born a-|gain.”||
w: love re- peat, “And|I will * give you|rest.”||
w: ev- ery land, At|a- ny * sa- cri-|fice.||
w: are be- long To|Christ, our * Lord di-|vine.||
V:2
 x2 | x16 | x4 D2 x2 | x8 | x8 | x8 | x8 | x8 | x8 | x8 | x8 | x8 | x2 E2 x4 | E6 x2 |] x6 |] %15
V:3
 [E,E]2 | [E,E]2 [E,C]2 [E,B,]2 [E,B,]2 x8 | [E,E]6 [E,B,]2 | A,3 [G,B,] [F,B,]2 [E,B,]2 | %4
 [B,,B,]6 [B,,B,]2 | B,4 ([F,B,]2 [F,,=A,]2) | [B,,B,]6 [B,,A,]2 | %7
 [E,G,]2 [E,B,]2 [E,B,]2 [E,=A,]2 | [E,B,]3 [E,B,] [E,B,]2 [E,E]2 | %9
 [E,E]2 [E,B,]2 [E,B,]2 [E,=A,]2 | [E,B,]3 [E,B,] [E,B,]2 [E,E]2 | [A,E]2 [F,F]2 B,2 [A,D]2 | %12
 [G,E]2 [E,_D]2 [A,C]3 [A,,A,] | [B,,G,]2 (CB,) [B,,A,]2 [B,,A,]2 |] [E,G,]6 |] %15
V:4
 x2 | x16 | x8 | A,3 x5 | x8 | (B,,2 D,2) x4 | x8 | x8 | x8 | x8 | x8 | x4 B,2 x2 | x8 | %13
 x2 B,,2 x4 |] x6 |] %15

